X:1
T: Inverary March
C:
R:Reel
Q: 232
K:G
M:4/4
L:1/8
|:GA|B2 BB B2 GB|d2 dd d2 e2|dB cA Bd GB|A2 AA A2 GA|
B2 BB B2 GB|d2 dd d2 e2|dB Ac Bd cA|G2 GG G2:|
|:G1/2A1/2B1/2c1/2|d2 dd dB AB|G2 GG G2 d2|ge dc Bd GB|A2 AB A2 GA|
B2 BB B2 GB|d2 dd d2 e2|dB Ac Bd cA|G2 GG G2:|
